64x64/apps/kodelife.svg

<svg height="64" width="64" xmlns="http://www.w3.org/2000/svg"><rect height="56" opacity=".2" rx="2.8" width="56" x="4" y="5"/><rect fill="#4f4f4f" height="56" rx="2.8" width="56" x="4" y="4"/><path d="m14 13c-1.108 0-2 .892-2 2v17l22-19zm28 0-17.11 14.828 26.497 24.606c.375-.364.613-.868.613-1.434v-36c0-1.108-.892-2-2-2zm-21.402 18.547-8.598 7.453v12c0 1.108.892 2 2 2h30z" opacity=".2"/><g fill="#f4f4f7"><path d="m14 12c-1.108 0-2 .892-2 2v17l22-19zm28 0-17.11 14.828 26.497 24.606c.375-.364.613-.868.613-1.434v-36c0-1.108-.892-2-2-2zm-21.402 18.547-8.598 7.453v12c0 1.108.892 2 2 2h30z"/><path d="m6.8 4c-1.55 0-2.8 1.25-2.8 2.8v1c0-1.55 1.25-2.8 2.8-2.8h50.4c1.55 0 2.8 1.25 2.8 2.8v-1c0-1.55-1.25-2.8-2.8-2.8z" opacity=".1"/></g></svg>

<svg width="64" height="64" xmlns="http://www.w3.org/2000/svg"><rect x="4" y="5" width="56" height="56" rx="2.8" ry="2.8" style="opacity:.2"/><rect x="4" y="4" width="56" height="56" rx="2.8" ry="2.8" style="fill:#4f4f4f"/><path d="M14 13c-1.108 0-2 .892-2 2v17l22-19zm28 0L24.89 27.828l26.497 24.606c.375-.364.613-.868.613-1.434V15c0-1.108-.892-2-2-2zM20.598 31.547 12 39v12c0 1.108.892 2 2 2h30z" style="opacity:.2"/><path d="M14 12c-1.108 0-2 .892-2 2v17l22-19zm28 0L24.89 26.828l26.497 24.606c.375-.364.613-.868.613-1.434V14c0-1.108-.892-2-2-2zM20.598 30.547 12 38v12c0 1.108.892 2 2 2h30z" style="fill:#f4f4f7"/><path d="M6.8 4C5.25 4 4 5.25 4 6.8v1C4 6.25 5.25 5 6.8 5h50.4C58.75 5 60 6.25 60 7.8v-1C60 5.25 58.75 4 57.2 4H6.8z" style="fill:#f4f4f7;opacity:.1"/></svg>
